svgs/thin/mask.svg

<svg xmlns="http://www.w3.org/2000/svg" viewBox="0 0 576 512"><!-- Font Awesome Pro 6.0.0-alpha2 by @fontawesome - https://fontawesome.com License - https://fontawesome.com/license (Commercial License) --><path d="M288 64C39.52 64 0 182.098 0 273.457C0 379.492 78.799 448 176 448C203.328 448 227.207 441.484 242.107 411.207L262.033 370.711C268.299 358.574 278.1 352.445 288 352.074C297.9 352.445 307.701 358.574 313.967 370.711L333.893 411.207C348.795 441.484 372.674 448 400 448C497.201 448 576 379.492 576 273.457C576 182.098 536.48 64 288 64ZM400 432C372.27 432 358.244 424.449 348.248 404.145L328.184 363.371C319.68 346.895 304.881 336.695 287.4 336.086C271.119 336.695 256.322 346.895 247.678 363.648L227.752 404.141C217.758 424.449 203.732 432 176 432C83.289 432 16 365.324 16 273.457C16 143.281 104.973 80 288 80S560 143.281 560 273.457C560 365.324 492.711 432 400 432ZM160 192C124.654 192 96 220.652 96 256S124.654 320 160 320C195.348 320 224 291.348 224 256S195.348 192 160 192ZM160 304C133.533 304 112 282.469 112 256S133.533 208 160 208S208 229.531 208 256S186.467 304 160 304ZM416 192C380.654 192 352 220.652 352 256S380.654 320 416 320C451.348 320 480 291.348 480 256S451.348 192 416 192ZM416 304C389.533 304 368 282.469 368 256S389.533 208 416 208S464 229.531 464 256S442.467 304 416 304Z"/></svg>

<svg xmlns="http://www.w3.org/2000/svg" viewBox="0 0 576 512"><!--! Font Awesome Pro 6.0.0-alpha3 by @fontawesome - https://fontawesome.com License - https://fontawesome.com/license (Commercial License) --><path d="M288 64C39.52 64 0 182.1 0 273.5C0 379.5 78.8 448 176 448c27.33 0 51.21-6.518 66.11-36.79l19.93-40.5C268.3 358.6 278.1 352.4 288 352.1c9.9 .3711 19.7 6.497 25.97 18.63l19.93 40.5C348.8 441.5 372.7 448 400 448c97.2 0 176-68.51 176-174.5C576 182.1 536.5 64 288 64zM400 432c-27.73 0-41.76-7.551-51.75-27.86l-20.06-40.77c-8.504-16.48-23.3-26.68-40.78-27.29c-16.28 .6094-31.08 10.81-39.72 27.56l-19.93 40.49C217.8 424.4 203.7 432 176 432c-92.71 0-160-66.68-160-158.5C16 143.3 104.1 80 288 80s272 63.28 272 193.5C560 365.3 492.7 432 400 432zM160 192C124.7 192 96 220.7 96 256s28.65 64 64 64c35.35 0 64-28.65 64-64S195.3 192 160 192zM160 304C133.5 304 112 282.5 112 256S133.5 208 160 208S208 229.5 208 256S186.5 304 160 304zM416 192c-35.35 0-64 28.65-64 64s28.65 64 64 64c35.35 0 64-28.65 64-64S451.3 192 416 192zM416 304c-26.47 0-48-21.53-48-48s21.53-48 48-48s48 21.53 48 48S442.5 304 416 304z"/></svg>
